X:244
T:Lady Be Good
C:Emory Lester ("Pale Rider")
N:TablEdited by
L:1/8
Q:1/4=250
M:4/4
K:G
"Transcribed by""Steve Keating"z8 | "Intro"d'^c' =c'd' bg eg | dB AB df ac' | 
ba ge dB AB | GA B2 c2 ^c2 | "G7"d4 c2 Bd | "C7"z3^c de dB | "G7"AG E2 D4 | "E"z2 {^d}e2 e2 {=d}^d2 | 
"Am7"e2 B2 GE DC | "D"B,C DG ^AB GA | "G7"Bd eB de Bd | "Am7"eB AG "D"AB c^c | 
"G7"d4 c2 Bd | "C7"z3^c de dB | "G7"AG E2 D4 | "E"z2 {^d}e2 e2 {=d}^d2 | "Am7"e2 B2 GE DC | 
"D"B,C DG {^A}BG AB | "G"G2 GB AG F=F | "G7"d4 z2 {B}c2 | "C7"^de g2 d2 cd | eg ae gc' ^ab | 
"G"gd eg d2 g2 | z2 =fe df ed | {c}"A"^cA =c^c AB cd | ef gf e^c (3ABc | "D"dB AG FD E^C | 
D2 DF GA Bc | "G7"d4 c2 Bd | "C7"z3^c de dB | "G7"AG E2 D4 | "E"z2 {^d}e2 e2 {=d}^d2 | 
"Am7"e2 {^A}B2 GE DC | "D"A,C B,C {^A}BG {A}B2 | "G"G2 z^A Bd eg | ba ge dB AB | 
"Split Break - fi"G4 ^ab d'a | "G7"bd' ^ab d'a bd' | "C7"^ab d'a bd' =ac' | (3"G7"bc'b ge de ^AB | 
"E"G2 (3A^AB de ac' | "Am7"bc' d'2 e'3e' | "D"g'g' g'g' g'g' g'g' | "G"g'e' z2 e'b d'e' | 
"Am7"d'c' bd' "D"^ab ge | "G7"g8 | "Chorus"ga c'd' e'4 | g'2 d'b c'd' e'c' | d'c' zd' ^ab ge | 
gd eg d4 | zB zB AB ^cd | ef gf e^c ec | z2 [d'2d2] [d'd][d'd] [d'd][d'd] | [d'3d3]F GA Bc | 
"G7"d4 c2 Bd | "C7"z3^c de dB | "G7"AG E2 D4 | "E"z2 {^d}e2 e2 {=d}^d2 | "Am7"e2 {^A}B2 GE DC | 
"D"A,C B,C {^A}BG {A}B2 | "G"G8 | 
 

